X: 22
T: RAKES OF KILDARE
S: "Community Dances Manual 6", EFDSS, Jack Hamilton ed., 1981 p.11
R: jig
Z: 2010 John Chambers <jc:trillian.mit.edu>
N: The book spells it "RAKE'S", but current EFDSS docs omit the apostrophe.
M: 6/8
L: 1/8
K: Ador
"A"|: E |\
"Am"EAA AGA | "Am"Bcd "(D7)"e2f | "G"gfg ege | "G"dBG A2G |\
"Am"EAA AGA | "Am"Bcd e2f | "Em"gfe dBG | "Am"A3 A2 :|
"B1"[|] a |\
"Am"aea aea | "Am"aea "(D7)"b2a | "G"gfg ege | "G"dBG G2a |\
"Am"aea aea | "Am"aea b2a | "Em"gfe dBG | "Am"A3 A2 :|
"B2"[|] a |\
"Am"aea aea | "Am"aea "(D7)"b2a | "G"gfg ege | "G"dBG A2G |\
"Am"EAA AGA | "Am"Bcd e2f | "Em"gfe dBG | "Am"A3 A2 |]

%%sep 2 1 500
%%sep 1 1 500

